public/assets/standards/rtc/transforming-icon-1.svg

<svg width="56" height="50" viewBox="0 0 56 50" fill="none" xmlns="http://www.w3.org/2000/svg">
<path d="M32.49 42.25H23.51C21.6433 42.25 20.13 43.761 20.13 45.625C20.13 47.489 21.6433 49 23.51 49H32.49C34.3567 49 35.87 47.489 35.87 45.625C35.87 43.761 34.3567 42.25 32.49 42.25Z" fill="#A5C352"/>
<path d="M28 42.2499V23.1399" stroke="#A5C352" stroke-width="1.38" stroke-linecap="round" stroke-linejoin="round"/>
<path d="M8.75 34.8201C8.75 32.7801 10.39 31.1301 12.42 31.1001L15.02 31.0501C17.06 31.0201 18.69 29.3601 18.69 27.3301V19.5601" stroke="#A5C352" stroke-width="1.38" stroke-linecap="round" stroke-linejoin="round"/>
<path d="M47.25 34.8201C47.25 32.7801 45.61 31.1301 43.58 31.1001L40.98 31.0501C38.94 31.0201 37.31 29.3601 37.31 27.3301V19.5601" stroke="#A5C352" stroke-width="1.38" stroke-linecap="round" stroke-linejoin="round"/>
<path d="M50.94 35.4399H43.57C41.7033 35.4399 40.19 36.951 40.19 38.8149C40.19 40.6789 41.7033 42.1899 43.57 42.1899H50.94C52.8067 42.1899 54.32 40.6789 54.32 38.8149C54.32 36.951 52.8067 35.4399 50.94 35.4399Z" fill="#006D68"/>
<path d="M43.51 12.08C43.51 12.08 36.57 23.16 28 23.16C19.43 23.16 12.49 12.08 12.49 12.08C12.49 12.08 19.43 1 28 1C36.57 1 43.51 12.08 43.51 12.08Z" fill="#006D68"/>
<path d="M28 15.8699C30.4687 15.8699 32.47 13.8686 32.47 11.3999C32.47 8.93122 30.4687 6.92993 28 6.92993C25.5313 6.92993 23.53 8.93122 23.53 11.3999C23.53 13.8686 25.5313 15.8699 28 15.8699Z" fill="#FBFCF6"/>
<path d="M12.43 35.4399H5.05999C3.19327 35.4399 1.67999 36.951 1.67999 38.8149C1.67999 40.6789 3.19327 42.1899 5.05999 42.1899H12.43C14.2967 42.1899 15.81 40.6789 15.81 38.8149C15.81 36.951 14.2967 35.4399 12.43 35.4399Z" fill="#006D68"/>
</svg>

<svg xmlns="http://www.w3.org/2000/svg" width="56" height="50" fill="none" viewBox="0 0 56 50"><path fill="#a5c352" d="M32.49 42.25h-8.98a3.377 3.377 0 0 0-3.38 3.375A3.377 3.377 0 0 0 23.51 49h8.98a3.377 3.377 0 0 0 3.38-3.375 3.377 3.377 0 0 0-3.38-3.375"/><path stroke="#a5c352" stroke-linecap="round" stroke-linejoin="round" stroke-width="1.38" d="M28 42.25V23.14M8.75 34.82c0-2.04 1.64-3.69 3.67-3.72l2.6-.05a3.72 3.72 0 0 0 3.67-3.72v-7.77m28.56 15.26c0-2.04-1.64-3.69-3.67-3.72l-2.6-.05a3.72 3.72 0 0 1-3.67-3.72v-7.77"/><path fill="#006d68" d="M50.94 35.44h-7.37a3.38 3.38 0 0 0-3.38 3.375 3.377 3.377 0 0 0 3.38 3.375h7.37a3.377 3.377 0 0 0 3.38-3.375 3.38 3.38 0 0 0-3.38-3.375m-7.43-23.36S36.57 23.16 28 23.16 12.49 12.08 12.49 12.08 19.43 1 28 1s15.51 11.08 15.51 11.08"/><path fill="#fbfcf6" d="M28 15.87a4.47 4.47 0 1 0 0-8.94 4.47 4.47 0 0 0 0 8.94"/><path fill="#006d68" d="M12.43 35.44H5.06a3.38 3.38 0 0 0-3.38 3.375 3.377 3.377 0 0 0 3.38 3.375h7.37a3.377 3.377 0 0 0 3.38-3.375 3.38 3.38 0 0 0-3.38-3.375"/></svg>
